X: 2526
T: Ballydesmond, The
R: polka
M: 2/4
K: Cmajor
"Dm"F2 E2|"Dm"D2 C>D|"Am"EG AG|"Am"c3 G|"C"Ad cA|"C"GE CD/E/|"G"FA GE|"G"D2 DE|
"Dm"F2 E2|"Dm"D2 C>D|"Am"EG AG|"Am"c3 G|"C"Ad cA|"C"GE CD/E/|"G"FA GE|"Dm"D2 D2||
"Dm"Ad dc/A/|"Dm"Gc c>G|"Dm"Ad de|"C"c2 AG|"Am"Ad cA|"Am"GE CD/E/|"C"FA GE|"Dm"D2 D2|
"Dm"Ad dc/A/|"Dm"Gc c>G|"Dm"Ad de|"C"c2 AG|"Am"Ad cA|"Am"GE CD/E/|"C"FA GE|"Dm"D2 DE||

